X: 14063
T: Ms. EKLUND'S
C: Bob McQuillen Feb.'09
B: Bob's Note Book 14 #63
%R: reel
%D:2009
Z: 2020 John Chambers <jc:trillian.mit.edu>
M: C
L: 1/8
K: D
fe \
| d2AG FDFA | defd A2fa | g2eg fafd | efge cABc |
| d2AG FDFA | defg a2gf | efge cABc | d2f2 d2  :|
|: fg \
| a2ag fdef | gfed B2ef | g2ga gfed | efec A2AG |
| FABA FDFA | B2ed cBAG | FAdf geag | f2d2 d2  :|
%%begintext align
%% Wonderful writer
%% Jane Eklund, from Hancock, is Programs Information
%% Officer for N.H. State Council on the Arts, and also the
%% editor of their beautiful new publication, The N.H. Arts Journal.
%% So why this tune? Well, it's because she is a close friend of Sarah
%% Bauham, a twanger on a mandolin, and has been very nice to
%% me, that's why! Thanks, Jane!!
%%endtext

%%sep 1 1 500

%%sep 1 1 500

